assets/pebbles/five-g.svg

<svg width="64" height="64" viewBox="0 0 64 64" fill="none" xmlns="http://www.w3.org/2000/svg">
    <path d="M59.1793 30.4482C59.195 30.4475 59.2105 30.45 59.2251 30.4555L59.221 30.4566C59.2335 30.461 59.2418 30.4701 59.2504 30.4794C59.254 30.4833 59.2576 30.4873 59.2616 30.4909C59.0888 31.1956 58.9025 31.8877 58.7089 32.5726C58.6947 32.6042 58.6805 32.6359 58.6661 32.6675C58.4243 33.5134 58.1664 34.3455 57.8925 35.1639C57.8941 35.1659 57.8956 35.168 57.8972 35.1702C57.8999 35.1741 57.9028 35.1781 57.9064 35.1819C57.6944 35.8029 57.4746 36.4139 57.2479 37.0182C57.2495 37.0203 57.2509 37.0225 57.2524 37.0246L57.2526 37.0249C57.2557 37.0293 57.2587 37.0337 57.2621 37.0377C56.825 38.2107 56.3503 39.3494 55.8507 40.4589C55.8324 40.4904 55.814 40.5218 55.7955 40.5532C55.7003 40.764 55.6042 40.9736 55.5071 41.182L55.5167 41.1761C54.7149 42.8962 53.8237 44.573 52.8468 46.1996L52.8482 46.2022C52.8497 46.2051 52.8513 46.2079 52.8532 46.2106C52.2085 47.2812 51.5421 48.3078 50.8537 49.2904L50.8384 49.3084C49.6993 50.933 48.4586 52.4844 47.1234 53.9533L47.1224 53.9574C47.0962 53.9814 47.07 54.0053 47.0438 54.0292C41.8031 59.7357 35.943 63.0001 31.0717 63.0001C29.8203 62.986 28.5774 62.7925 27.3809 62.4256C27.3805 62.4237 27.38 62.4219 27.3796 62.42C26.4971 62.1597 25.6354 61.8328 24.8019 61.442C24.8013 61.4394 24.8009 61.4368 24.8006 61.4342C24.0125 61.0687 23.2444 60.6613 22.4995 60.2138C22.499 60.2115 22.4985 60.2091 22.4981 60.2066C21.6087 59.6768 20.7466 59.1022 19.9152 58.485C19.9151 58.4836 19.9151 58.4822 19.9152 58.4808C19.5034 58.1771 19.0936 57.8625 18.6859 57.5368C18.6863 57.5355 18.6866 57.5341 18.6869 57.5328L18.6873 57.5308L18.6877 57.5286C18.2363 57.1643 17.7884 56.7869 17.3438 56.3965C17.336 56.3915 17.3282 56.3865 17.3204 56.3815C16.9672 56.0713 16.618 55.7537 16.2727 55.4288C16.2597 55.4206 16.2467 55.4124 16.2337 55.4042C15.528 54.739 14.8341 54.0422 14.1532 53.319C14.149 53.3157 14.1448 53.3123 14.1407 53.309C13.7087 52.851 13.283 52.3816 12.8667 51.9059C12.8695 51.9008 12.8712 51.8949 12.8729 51.8889C12.8758 51.879 12.8787 51.8689 12.8865 51.8612C12.8998 51.8472 12.916 51.8362 12.934 51.829C12.9519 51.8218 12.9712 51.8186 12.9906 51.8195C13.022 51.8194 13.0525 51.83 13.0769 51.8497C15.1034 53.4994 17.8523 54.3373 21.2443 54.3373C29.0214 54.3373 40.0073 49.7327 49.227 42.6072C54.938 38.1941 57.3246 34.1931 59.0545 30.5263C59.0658 30.5029 59.0836 30.4831 59.1057 30.4693C59.1278 30.4555 59.1533 30.4482 59.1793 30.4482Z" fill="#D940FF"/>
    <path d="M54.5186 3.46571C54.5174 3.46399 54.5162 3.46227 54.515 3.46058C53.496 2.88002 52.4173 2.41102 51.2978 2.06171C51.2921 2.06653 51.285 2.06949 51.2778 2.07245C51.2664 2.07715 51.255 2.08184 51.2499 2.09397C51.2373 2.12661 51.2373 2.16275 51.2498 2.19543C51.2623 2.2281 51.2864 2.25499 51.3175 2.27091C51.838 2.528 52.1908 2.79133 52.3646 3.05986C52.8101 3.74681 52.8923 4.60237 52.6092 5.59948C51.3009 10.1874 42.4091 17.239 31.4804 22.3662C22.4252 26.6107 14.2027 29.0452 8.9257 29.0452C5.79177 29.0452 3.76319 28.1906 3.06064 26.5763C2.81604 26.0132 2.78169 25.2597 2.95655 24.3375C2.97908 24.264 3.00346 24.1905 3.02783 24.1171C3.05525 24.0344 3.08268 23.9518 3.10747 23.8691C3.11415 23.8521 3.11736 23.834 3.11693 23.8157C3.11651 23.7974 3.11244 23.7795 3.10498 23.7628C3.09752 23.7461 3.08681 23.7311 3.07347 23.7186C3.06014 23.7061 3.04445 23.6964 3.02733 23.6901H3.01692C3.00313 23.6856 2.98875 23.6831 2.97425 23.6828C2.9698 23.6828 2.96654 23.6864 2.96336 23.6899C2.96058 23.6929 2.95787 23.6959 2.95447 23.6963C2.5462 24.8742 2.26681 26.0927 2.12114 27.3306C2.04785 27.9305 2.00783 28.534 2.00129 29.1385C2.00047 29.1657 2 29.1929 2 29.22C2.00889 30.105 2.08618 30.9878 2.2311 31.8606L2.23002 31.8616C2.30526 32.3269 2.40064 32.8015 2.51174 33.2832L2.51039 33.2843L2.50893 33.2855C2.73486 34.2457 3.01076 35.1934 3.33548 36.1248L3.33539 36.1249C3.45881 36.4831 3.59023 36.844 3.72967 37.2073C3.72884 37.2085 3.72799 37.2096 3.72711 37.2107L3.72605 37.212L3.72558 37.2126L3.72468 37.2136C4.04734 38.0514 4.40642 38.9008 4.80818 39.7542C4.81773 39.7645 4.8273 39.7748 4.8369 39.7851C5.02015 40.1754 5.21048 40.567 5.40947 40.9599C5.40861 40.9612 5.40768 40.9624 5.40668 40.9637C5.75403 41.647 6.12395 42.3303 6.51644 43.0136L6.51611 43.0141C6.69625 43.332 6.88037 43.6477 7.0689 43.9632L7.06885 43.9633L7.09495 44.0067C7.15277 44.1033 7.21101 44.1998 7.26967 44.2964L7.27278 44.2994C7.60059 44.834 7.94231 45.3661 8.29233 45.8947C8.29143 45.8966 8.29054 45.8984 8.28969 45.9003C8.63663 46.4249 8.99329 46.9453 9.35966 47.4616L9.36077 47.4625C9.79579 48.0751 10.244 48.6809 10.7055 49.2799L10.715 49.2874C10.9753 49.6241 11.2389 49.9572 11.5058 50.2869L11.5052 50.2879L11.5049 50.2884C12.06 50.9719 12.629 51.6412 13.2118 52.2962C15.2685 53.8366 17.958 54.6224 21.2428 54.6224C29.0792 54.6224 40.1287 49.9939 49.3972 42.834C54.9573 38.5323 57.3918 34.6188 59.1217 31.0227C59.3777 30.0239 59.6092 29.0074 59.8161 27.9735C59.8212 27.9605 59.8264 27.9476 59.8315 27.9346C59.9598 27.2976 60.0778 26.6558 60.1853 26.0091C60.182 26.0063 60.179 26.0033 60.176 26.0003C60.3116 25.1866 60.4368 24.366 60.5392 23.5329C60.5387 23.5325 60.5381 23.5321 60.5376 23.5317C60.5368 23.5311 60.5361 23.5305 60.5354 23.5298C60.5863 23.1136 60.6327 22.6964 60.6754 22.2755L60.6787 22.2652C60.8016 21.0672 60.9004 19.8557 60.9535 18.6223C60.9482 18.6182 60.9422 18.615 60.9358 18.6129C60.9503 18.2522 60.9619 17.8899 60.9706 17.526L60.9764 17.5003C60.9798 17.3499 60.9839 17.1995 60.988 17.0491L60.988 17.0484C60.9978 16.689 61.0077 16.3288 61.0077 15.9651C61.0077 15.327 60.9733 14.7161 60.9202 14.127C60.9192 14.1265 60.9183 14.126 60.9173 14.1255C60.9163 14.125 60.9154 14.1245 60.9145 14.124C60.9132 14.1233 60.912 14.1226 60.9108 14.1219L60.9093 14.121C60.857 13.4818 60.7713 12.8456 60.6527 12.215C60.6474 12.2113 60.6417 12.2082 60.6357 12.2058C60.485 11.4566 60.2771 10.72 60.0139 10.0025L60.0116 9.98554C59.7677 9.31991 59.4686 8.67583 59.1175 8.06001L59.1169 8.05999C58.8319 7.55463 58.5107 7.07042 58.1557 6.61116C58.1536 6.61134 58.1515 6.61158 58.1493 6.61186C57.8499 6.22439 57.5267 5.85569 57.1815 5.5079C57.1796 5.50817 57.1776 5.5085 57.1757 5.50887C56.7982 5.12533 56.3962 4.76668 55.9723 4.43519L55.9721 4.4348L55.9581 4.42416C55.8942 4.37435 55.8299 4.32516 55.765 4.27659L55.7633 4.27692L55.7619 4.27721C55.3627 3.984 54.9476 3.71309 54.5186 3.46571Z" fill="#B347EA"/>
    <path d="M43.8998 1C44.0714 1 44.2416 1.00337 44.4114 1.00833C45.8643 1.02765 47.313 1.16694 48.7427 1.4247C48.7469 1.4223 48.7508 1.4196 48.7542 1.41633C49.7862 1.60269 50.802 1.86926 51.7924 2.2136C52.1702 2.43842 52.4409 2.66949 52.5959 2.90888C53.083 3.66556 53.1871 4.5971 52.8749 5.6754C51.527 10.4091 42.7747 17.3764 31.5931 22.618C22.3703 26.9405 14.3185 29.323 8.92179 29.323C5.66816 29.323 3.5532 28.4112 2.80276 26.6855C2.58523 26.188 2.5207 25.5427 2.60917 24.7735C2.84862 23.9111 3.15128 23.0675 3.51469 22.2495H3.52093C3.52461 22.2495 3.52829 22.2497 3.53194 22.25C3.89086 21.433 4.30227 20.6398 4.76368 19.8754L4.76432 19.8754C5.30526 18.9767 5.90335 18.1135 6.55495 17.291C6.55545 17.2911 6.55596 17.2911 6.55646 17.2911C7.62606 15.9397 8.80904 14.6816 10.0927 13.5305C10.094 13.5307 10.0954 13.531 10.0967 13.5312C11.1851 12.5481 12.3295 11.6283 13.5243 10.7765L13.5247 10.7768C18.0021 7.56311 23.404 4.99297 29.0525 3.29711L29.0785 3.29094C31.1064 2.68264 33.1673 2.18808 35.2516 1.80976C35.2554 1.80939 35.2593 1.80903 35.2631 1.80866C36.4327 1.59744 37.6092 1.4262 38.7904 1.29521C38.7908 1.2943 38.7911 1.29339 38.7915 1.29247C40.4876 1.10191 42.193 1.00427 43.8998 1Z" fill="#C383FF"/>
    <path d="M23.0938 30.0195L23.2411 26.8048H28.5867C28.9094 26.8048 29.2111 26.5854 29.4917 26.1467C29.7723 25.708 29.9126 25.2298 29.9126 24.712C29.9126 24.2373 29.6601 24 29.155 24H22.6518C22.1888 24 21.7573 24.133 21.3575 24.3991C20.9576 24.6652 20.7506 24.9565 20.7366 25.2729L20.463 31.4435C20.463 31.6592 20.5682 31.9181 20.7787 32.2202C21.0733 32.7092 21.396 32.9538 21.7468 32.9538C21.831 32.9538 21.9994 32.8962 22.2519 32.7812C22.6869 32.551 23.1569 32.364 23.662 32.2202C24.1671 32.0764 24.6301 32.0045 25.051 32.0045C25.8227 32.0045 26.4576 32.2166 26.9557 32.6409C27.4538 33.0652 27.7028 33.6154 27.7028 34.2914C27.7028 34.9531 27.4573 35.5104 26.9662 35.9635C26.4751 36.4166 25.8718 36.6432 25.1562 36.6432C24.6091 36.6432 24.132 36.5317 23.7251 36.3087C23.3182 36.0858 22.9324 35.7226 22.5676 35.2192C22.4413 35.0178 22.2239 34.9171 21.9152 34.9171C21.4522 34.9171 21.0172 35.0538 20.6103 35.3271C20.2034 35.6003 20 35.888 20 36.1901C20 36.3195 20.0561 36.5137 20.1684 36.7726C20.5893 37.5781 21.2417 38.2217 22.1256 38.7036C23.0096 39.1854 23.9917 39.4264 25.0721 39.4264C26.0402 39.4264 26.9381 39.207 27.7659 38.7683C28.5938 38.3296 29.2672 37.7183 29.7864 36.9344C30.3055 36.1505 30.5651 35.2767 30.5651 34.313C30.5651 33.45 30.3546 32.6589 29.9337 31.9397C29.5128 31.2205 28.913 30.6416 28.1342 30.2029C27.3555 29.7642 26.4751 29.5449 25.493 29.5449C25.1282 29.5449 24.7283 29.588 24.2934 29.6743C23.8584 29.7606 23.4585 29.8757 23.0938 30.0195Z" fill="white"/>
    <path d="M41.1151 34.0549H42.3206V36.0843C41.5599 36.5302 40.6988 36.7531 39.7373 36.7531C38.8766 36.7531 38.1009 36.552 37.4104 36.1496C36.7227 35.7467 36.1745 35.1749 35.7656 34.4341C35.3567 33.6934 35.1522 32.8411 35.1522 31.8772C35.1525 30.4807 35.6045 29.3329 36.5083 28.4338C37.4121 27.5347 38.5674 27.0852 39.9741 27.0852C40.3798 27.0825 40.7841 27.1332 41.177 27.2361C41.5498 27.3368 41.9876 27.5094 42.4902 27.754C42.6902 27.8546 42.8623 27.905 43.0066 27.905C43.2083 27.9047 43.4092 27.8075 43.6091 27.6136C43.8091 27.4196 43.9812 27.1571 44.1255 26.826C44.2683 26.5002 44.3421 26.1473 44.3419 25.7904C44.3422 25.4884 44.2347 25.2727 44.0195 25.1432C42.8283 24.3951 41.4865 24.021 39.994 24.021C38.6379 24.016 37.3036 24.3691 36.1209 25.0461C34.9153 25.7291 33.9358 26.6893 33.1823 27.9266C32.4289 29.1638 32.0522 30.5305 32.0522 32.0264C32.0432 33.3563 32.3655 34.6668 32.9889 35.8349C33.613 37.0062 34.4989 37.9551 35.6465 38.6814C36.7941 39.4078 38.0782 39.7709 39.4988 39.7709C40.2783 39.7723 41.0539 39.6596 41.802 39.4363C42.5071 39.2331 43.1757 38.9163 43.7827 38.4978C44.7442 37.835 45.2249 36.8856 45.2249 35.6495V31.8759C45.2247 31.3867 44.9592 31.1422 44.4285 31.1422H41.7375C41.2441 31.1394 40.7609 31.2858 40.3489 31.5629C39.9256 31.8436 39.714 32.1421 39.714 32.4582C39.714 32.6306 39.8294 32.9039 40.0602 33.2779C40.4048 33.7959 40.7564 34.0549 41.1151 34.0549Z" fill="white"/>
    <path d="M23.0938 30.0195L23.2411 26.8048H28.5867C28.9094 26.8048 29.2111 26.5854 29.4917 26.1467C29.7723 25.708 29.9126 25.2298 29.9126 24.712C29.9126 24.2373 29.6601 24 29.155 24H22.6518C22.1888 24 21.7573 24.133 21.3575 24.3991C20.9576 24.6652 20.7506 24.9565 20.7366 25.2729L20.463 31.4435C20.463 31.6592 20.5682 31.9181 20.7787 32.2202C21.0733 32.7092 21.396 32.9538 21.7468 32.9538C21.831 32.9538 21.9994 32.8962 22.2519 32.7812C22.6869 32.551 23.1569 32.364 23.662 32.2202C24.1671 32.0764 24.6301 32.0045 25.051 32.0045C25.8227 32.0045 26.4576 32.2166 26.9557 32.6409C27.4538 33.0652 27.7028 33.6154 27.7028 34.2914C27.7028 34.9531 27.4573 35.5104 26.9662 35.9635C26.4751 36.4166 25.8718 36.6432 25.1562 36.6432C24.6091 36.6432 24.132 36.5317 23.7251 36.3087C23.3182 36.0858 22.9324 35.7226 22.5676 35.2192C22.4413 35.0178 22.2239 34.9171 21.9152 34.9171C21.4522 34.9171 21.0172 35.0538 20.6103 35.3271C20.2034 35.6003 20 35.888 20 36.1901C20 36.3195 20.0561 36.5137 20.1684 36.7726C20.5893 37.5781 21.2417 38.2217 22.1256 38.7036C23.0096 39.1854 23.9917 39.4264 25.0721 39.4264C26.0402 39.4264 26.9381 39.207 27.7659 38.7683C28.5938 38.3296 29.2672 37.7183 29.7864 36.9344C30.3055 36.1505 30.5651 35.2767 30.5651 34.313C30.5651 33.45 30.3546 32.6589 29.9337 31.9397C29.5128 31.2205 28.913 30.6416 28.1342 30.2029C27.3555 29.7642 26.4751 29.5449 25.493 29.5449C25.1282 29.5449 24.7283 29.588 24.2934 29.6743C23.8584 29.7606 23.4585 29.8757 23.0938 30.0195Z" fill="white"/>
    <path d="M41.1151 34.0549H42.3206V36.0843C41.5599 36.5302 40.6988 36.7531 39.7373 36.7531C38.8766 36.7531 38.1009 36.552 37.4104 36.1496C36.7227 35.7467 36.1745 35.1749 35.7656 34.4341C35.3567 33.6934 35.1522 32.8411 35.1522 31.8772C35.1525 30.4807 35.6045 29.3329 36.5083 28.4338C37.4121 27.5347 38.5674 27.0852 39.9741 27.0852C40.3798 27.0825 40.7841 27.1332 41.177 27.2361C41.5498 27.3368 41.9876 27.5094 42.4902 27.754C42.6902 27.8546 42.8623 27.905 43.0066 27.905C43.2083 27.9047 43.4092 27.8075 43.6091 27.6136C43.8091 27.4196 43.9812 27.1571 44.1255 26.826C44.2683 26.5002 44.3421 26.1473 44.3419 25.7904C44.3422 25.4884 44.2347 25.2727 44.0195 25.1432C42.8283 24.3951 41.4865 24.021 39.994 24.021C38.6379 24.016 37.3036 24.3691 36.1209 25.0461C34.9153 25.7291 33.9358 26.6893 33.1823 27.9266C32.4289 29.1638 32.0522 30.5305 32.0522 32.0264C32.0432 33.3563 32.3655 34.6668 32.9889 35.8349C33.613 37.0062 34.4989 37.9551 35.6465 38.6814C36.7941 39.4078 38.0782 39.7709 39.4988 39.7709C40.2783 39.7723 41.0539 39.6596 41.802 39.4363C42.5071 39.2331 43.1757 38.9163 43.7827 38.4978C44.7442 37.835 45.2249 36.8856 45.2249 35.6495V31.8759C45.2247 31.3867 44.9592 31.1422 44.4285 31.1422H41.7375C41.2441 31.1394 40.7609 31.2858 40.3489 31.5629C39.9256 31.8436 39.714 32.1421 39.714 32.4582C39.714 32.6306 39.8294 32.9039 40.0602 33.2779C40.4048 33.7959 40.7564 34.0549 41.1151 34.0549Z" fill="white"/>
</svg>

<svg xmlns="http://www.w3.org/2000/svg" width="64" height="64" fill="none"><path fill="#D940FF" d="M59.18 30.448c.015 0 .03.002.045.008h-.004c.013.005.02.014.03.023l.01.012c-.172.705-.358 1.397-.552 2.082l-.043.094c-.242.846-.5 1.678-.773 2.497l.004.006a.096.096 0 0 0 .01.012 65.142 65.142 0 0 1-.66 1.836l.005.007.01.013a55.695 55.695 0 0 1-1.411 3.42l-.056.095c-.095.211-.19.42-.288.629l.01-.006a54.385 54.385 0 0 1-2.67 5.024l.001.002a.072.072 0 0 0 .005.009 53.153 53.153 0 0 1-2 3.08l-.015.017a47.141 47.141 0 0 1-3.715 4.645v.004l-.08.072C41.804 59.736 35.944 63 31.073 63a13.092 13.092 0 0 1-3.691-.574l-.001-.006a18.202 18.202 0 0 1-2.578-.978.07.07 0 0 1-.001-.008 24.417 24.417 0 0 1-2.301-1.22.132.132 0 0 1-.002-.007 30.639 30.639 0 0 1-2.583-1.722.03.03 0 0 1 0-.004 40.15 40.15 0 0 1-1.23-.944l.002-.004v-.004c-.45-.365-.899-.742-1.343-1.133l-.024-.014c-.353-.31-.702-.628-1.047-.953l-.04-.025a49.43 49.43 0 0 1-2.08-2.085l-.012-.01a50.904 50.904 0 0 1-1.274-1.403.082.082 0 0 0 .006-.017c.003-.01.006-.02.014-.028a.134.134 0 0 1 .104-.041c.031 0 .062.01.086.03 2.026 1.65 4.775 2.487 8.167 2.487 7.777 0 18.763-4.604 27.983-11.73 5.711-4.413 8.098-8.414 9.828-12.08a.138.138 0 0 1 .124-.079Z"/><path fill="#B347EA" d="M54.519 3.466a.76.76 0 0 0-.004-.005 16.317 16.317 0 0 0-3.217-1.4.074.074 0 0 1-.02.011c-.012.005-.023.01-.028.022a.141.141 0 0 0 .068.177c.52.257.873.52 1.047.789.445.687.527 1.542.244 2.54-1.308 4.587-10.2 11.639-21.129 16.766-9.055 4.245-17.277 6.68-22.554 6.68-3.134 0-5.163-.855-5.865-2.47-.245-.563-.28-1.316-.104-2.239.022-.073.046-.146.07-.22.028-.083.056-.165.08-.248a.137.137 0 0 0-.08-.179h-.01a.147.147 0 0 0-.043-.007c-.004 0-.007.003-.01.007-.003.003-.006.006-.01.006a17.254 17.254 0 0 0-.833 3.635A16.368 16.368 0 0 0 2 29.22c.009.885.086 1.768.231 2.64l-.001.002c.075.465.17.94.282 1.421l-.002.001-.001.002c.226.96.502 1.907.826 2.839.124.358.255.719.395 1.082a.06.06 0 0 1-.003.004l-.001.001-.001.002c.322.837.681 1.687 1.083 2.54l.029.031c.183.39.373.782.572 1.175l-.002.004c.347.683.717 1.366 1.11 2.05.18.318.363.634.552.95l.026.043.175.29.003.002c.328.535.67 1.067 1.02 1.596l-.003.005a58.004 58.004 0 0 0 2.416 3.38l.009.007c.26.337.524.67.79 1v.001a58.518 58.518 0 0 0 1.707 2.008c2.056 1.54 4.746 2.326 8.03 2.326 7.837 0 18.887-4.628 28.155-11.788 5.56-4.302 7.995-8.215 9.725-11.811.256-1 .487-2.016.694-3.05l.015-.038c.129-.637.247-1.28.354-1.926L60.176 26c.136-.813.26-1.634.363-2.467l-.001-.001a61.237 61.237 0 0 0 .138-1.256l.003-.01c.123-1.199.221-2.41.274-3.644a.06.06 0 0 0-.017-.01c.014-.36.026-.722.035-1.086l.005-.026.012-.45v-.002c.01-.359.02-.72.02-1.083 0-.638-.035-1.249-.088-1.838l-.003-.002-.003-.001a.122.122 0 0 1-.003-.002l-.002-.001a18.454 18.454 0 0 0-.256-1.906.085.085 0 0 0-.017-.01 14.97 14.97 0 0 0-.622-2.203l-.002-.016a12.732 12.732 0 0 0-.895-1.926c-.285-.505-.606-.99-.961-1.449h-.007c-.3-.387-.622-.755-.968-1.103h-.005c-.378-.383-.78-.741-1.204-1.073l-.014-.01c-.064-.05-.128-.1-.193-.148h-.003c-.4-.293-.814-.564-1.243-.811Z"/><path fill="#C383FF" d="M43.9 1c.171 0 .342.003.511.008a26.39 26.39 0 0 1 4.332.417.058.058 0 0 0 .011-.009c1.032.187 2.048.453 3.038.798.378.224.649.455.804.695.487.757.591 1.688.279 2.766-1.348 4.734-10.1 11.701-21.282 16.943-9.223 4.323-17.274 6.705-22.671 6.705-3.254 0-5.369-.912-6.12-2.637-.217-.498-.281-1.143-.193-1.913.24-.862.542-1.706.906-2.523h.016c.36-.817.771-1.61 1.233-2.375a24.55 24.55 0 0 1 1.79-2.584h.002a30.354 30.354 0 0 1 3.537-3.76h.004a38.172 38.172 0 0 1 3.427-2.755c4.478-3.213 9.88-5.783 15.528-7.479l.026-.006a56.776 56.776 0 0 1 6.174-1.481l.011-.001a52.26 52.26 0 0 1 3.527-.514l.002-.003A46.803 46.803 0 0 1 43.9 1Z"/><path fill="#fff" d="m23.094 30.02.147-3.215h5.346c.322 0 .624-.22.905-.658.28-.439.42-.917.42-1.435 0-.475-.252-.712-.757-.712h-6.503c-.463 0-.895.133-1.294.4-.4.265-.607.556-.621.873l-.274 6.17c0 .216.105.475.316.777.294.49.617.734.968.734.084 0 .252-.058.505-.173.435-.23.905-.417 1.41-.56a5.107 5.107 0 0 1 1.389-.216c.772 0 1.407.212 1.905.636.498.424.747.974.747 1.65 0 .662-.246 1.22-.737 1.673-.49.453-1.094.68-1.81.68-.547 0-1.024-.112-1.43-.335-.408-.223-.794-.586-1.158-1.09-.127-.201-.344-.302-.653-.302-.463 0-.898.137-1.305.41-.407.273-.61.561-.61.863 0 .13.056.324.168.583.421.805 1.074 1.449 1.958 1.93.884.482 1.866.723 2.946.723.968 0 1.866-.219 2.694-.658a5.446 5.446 0 0 0 2.02-1.834c.52-.783.78-1.657.78-2.621 0-.863-.211-1.654-.632-2.373-.421-.72-1.021-1.298-1.8-1.737-.779-.439-1.659-.658-2.641-.658-.365 0-.765.043-1.2.13a6.96 6.96 0 0 0-1.2.345ZM41.115 34.055h1.206v2.03c-.761.445-1.622.668-2.584.668-.86 0-1.636-.201-2.327-.603-.687-.403-1.235-.975-1.644-1.716-.41-.74-.614-1.593-.614-2.557 0-1.396.453-2.544 1.356-3.443.904-.9 2.06-1.349 3.466-1.349.406-.003.81.048 1.203.151.373.1.81.273 1.313.518.2.1.372.151.517.151.201 0 .402-.098.602-.291.2-.194.372-.457.517-.788.142-.326.216-.679.216-1.036 0-.302-.107-.517-.322-.647-1.192-.748-2.534-1.122-4.026-1.122a7.736 7.736 0 0 0-3.873 1.025c-1.206.683-2.185 1.643-2.939 2.88-.753 1.238-1.13 2.605-1.13 4.1a7.977 7.977 0 0 0 .937 3.809 7.494 7.494 0 0 0 2.658 2.846c1.147.727 2.431 1.09 3.852 1.09a8 8 0 0 0 2.303-.335 6.813 6.813 0 0 0 1.98-.938c.962-.663 1.443-1.612 1.443-2.848v-3.774c0-.49-.266-.734-.797-.734h-2.69a2.462 2.462 0 0 0-1.39.42c-.422.282-.634.58-.634.896 0 .173.115.446.346.82.345.518.696.777 1.055.777Z"/><path fill="#fff" d="m23.094 30.02.147-3.215h5.346c.322 0 .624-.22.905-.658.28-.439.42-.917.42-1.435 0-.475-.252-.712-.757-.712h-6.503c-.463 0-.895.133-1.294.4-.4.265-.607.556-.621.873l-.274 6.17c0 .216.105.475.316.777.294.49.617.734.968.734.084 0 .252-.058.505-.173.435-.23.905-.417 1.41-.56a5.107 5.107 0 0 1 1.389-.216c.772 0 1.407.212 1.905.636.498.424.747.974.747 1.65 0 .662-.246 1.22-.737 1.673-.49.453-1.094.68-1.81.68-.547 0-1.024-.112-1.43-.335-.408-.223-.794-.586-1.158-1.09-.127-.201-.344-.302-.653-.302-.463 0-.898.137-1.305.41-.407.273-.61.561-.61.863 0 .13.056.324.168.583.421.805 1.074 1.449 1.958 1.93.884.482 1.866.723 2.946.723.968 0 1.866-.219 2.694-.658a5.446 5.446 0 0 0 2.02-1.834c.52-.783.78-1.657.78-2.621 0-.863-.211-1.654-.632-2.373-.421-.72-1.021-1.298-1.8-1.737-.779-.439-1.659-.658-2.641-.658-.365 0-.765.043-1.2.13a6.96 6.96 0 0 0-1.2.345ZM41.115 34.055h1.206v2.03c-.761.445-1.622.668-2.584.668-.86 0-1.636-.201-2.327-.603-.687-.403-1.235-.975-1.644-1.716-.41-.74-.614-1.593-.614-2.557 0-1.396.453-2.544 1.356-3.443.904-.9 2.06-1.349 3.466-1.349.406-.003.81.048 1.203.151.373.1.81.273 1.313.518.2.1.372.151.517.151.201 0 .402-.098.602-.291.2-.194.372-.457.517-.788.142-.326.216-.679.216-1.036 0-.302-.107-.517-.322-.647-1.192-.748-2.534-1.122-4.026-1.122a7.736 7.736 0 0 0-3.873 1.025c-1.206.683-2.185 1.643-2.939 2.88-.753 1.238-1.13 2.605-1.13 4.1a7.977 7.977 0 0 0 .937 3.809 7.494 7.494 0 0 0 2.658 2.846c1.147.727 2.431 1.09 3.852 1.09a8 8 0 0 0 2.303-.335 6.813 6.813 0 0 0 1.98-.938c.962-.663 1.443-1.612 1.443-2.848v-3.774c0-.49-.266-.734-.797-.734h-2.69a2.462 2.462 0 0 0-1.39.42c-.422.282-.634.58-.634.896 0 .173.115.446.346.82.345.518.696.777 1.055.777Z"/></svg>
